lib/brands/icons/apple-app-store-alt.svg

<svg xmlns="http://www.w3.org/2000/svg" fill="none" aria-hidden="true" viewBox="0 0 48 48"><g id="apple-app-store-alt-Icon"><path id="Vector" fill="url(#paint0_linear_94_17119)" d="M9.12793 36.7657C9.23295 36.5256 9.35297 36.3006 9.488 36.0605L10.6732 33.8101C13.5837 32.985 14.874 34.9803 15.009 35.1904L13.2837 38.461C13.1487 38.701 13.0286 38.926 12.8936 39.1511C12.7736 39.3611 12.6386 39.5562 12.4885 39.7212C12.1435 40.0813 11.7084 40.3213 11.2433 40.3813C10.7782 40.4563 10.2981 40.3513 9.89307 40.0813C9.488 39.8262 9.15794 39.4361 8.9779 38.956C8.79787 38.476 8.76787 37.9509 8.88789 37.4558C8.9329 37.2157 9.02291 36.9907 9.12793 36.7657V36.7657ZM26.5913 24.448C25.8261 23.0827 25.5261 21.4924 25.7811 19.9472C25.9461 18.882 26.3962 17.6967 27.3864 16.6466L33.9726 28.3787H38.9535C39.2086 28.3787 39.4636 28.3787 39.7186 28.3937C39.9437 28.4087 40.1687 28.4237 40.3938 28.4987C40.8589 28.6337 41.2639 28.9188 41.549 29.3089C41.849 29.6989 42.0141 30.179 41.9991 30.6741C42.0141 31.1692 41.849 31.6493 41.549 32.0543C41.2639 32.4444 40.8589 32.7295 40.3938 32.8645C40.1687 32.9245 39.9437 32.9545 39.7186 32.9695C39.4636 32.9845 39.2086 32.9845 38.9535 32.9845H36.5681L38.3834 36.2401C38.5184 36.4501 38.6384 36.6752 38.7585 36.9152C38.8635 37.1253 38.9385 37.3353 38.9985 37.5603C39.1185 38.0404 39.0885 38.5505 38.9085 39.0156C38.7135 39.4657 38.3834 39.8558 37.9783 40.0958C37.5583 40.3509 37.0632 40.4409 36.5831 40.3809C36.103 40.3208 35.6679 40.0958 35.3228 39.7507C35.1578 39.5857 35.0228 39.4057 34.9028 39.1956C34.7527 38.9856 34.6327 38.7606 34.5127 38.5355L26.5913 24.448ZM18.8573 10.4772C18.7373 9.98214 18.7673 9.47204 18.9473 9.00696C19.1424 8.54187 19.4724 8.1518 19.8775 7.89676C20.2976 7.65671 20.7777 7.55169 21.2578 7.61171C21.7529 7.68672 22.1879 7.91176 22.533 8.25682C22.698 8.42185 22.8331 8.61689 22.9531 8.81192C23.0881 9.03696 23.2231 9.262 23.3431 9.48705L23.9283 10.5372L24.4984 9.48705C24.6334 9.262 24.7534 9.03696 24.8884 8.81192C25.0234 8.61689 25.1585 8.42185 25.3235 8.25682C25.6686 7.91176 26.1036 7.68672 26.5837 7.61171C27.0638 7.55169 27.5589 7.65671 27.964 7.89676C28.3841 8.1518 28.7141 8.54187 28.8942 9.00696C29.0892 9.47204 29.1192 9.98214 28.9992 10.4772C28.9392 10.7023 28.8491 10.9273 28.7441 11.1373C28.6391 11.3624 28.5041 11.5874 28.3841 11.8275L19.2174 28.3755H25.7886C27.919 28.3755 29.4643 30.5209 28.8491 32.6512C28.7891 32.8613 28.7141 32.9963 28.6991 33.0563H9.04555C8.79051 33.0563 8.53546 33.0563 8.29542 33.0413C8.05537 33.0263 7.84533 32.9963 7.62029 32.9213C7.15521 32.7863 6.75014 32.5162 6.45008 32.1111C6.16503 31.7061 6 31.211 6 30.7159C6 30.2058 6.16503 29.7257 6.45008 29.3206C6.75014 28.9156 7.15521 28.6305 7.62029 28.4955C7.84533 28.4355 8.05537 28.4055 8.29542 28.3905C8.53546 28.3755 8.79051 28.3755 9.04555 28.3755H14.0415L21.3328 15.2031L19.4724 11.8275C19.3374 11.5874 19.2174 11.3624 19.0974 11.1373C18.9924 10.9273 18.9173 10.7023 18.8573 10.4772V10.4772Z"/></g><defs><linearGradient id="paint0_linear_94_17119" x1="23.9977" x2="23.9977" y1="7.59515" y2="40.4049" gradientUnits="userSpaceOnUse"><stop stop-color="#0ED4FC"/><stop offset="1" stop-color="#0C57EF"/></linearGradient></defs></svg>

<svg xmlns="http://www.w3.org/2000/svg" fill="none" aria-hidden="true" viewBox="0 0 48 48"><path fill="url(#a)" d="M9.128 36.766c.105-.24.225-.465.36-.706l1.185-2.25c2.91-.825 4.201 1.17 4.336 1.38l-1.725 3.27c-.135.241-.255.466-.39.691-.12.21-.255.405-.405.57-.346.36-.78.6-1.246.66a1.888 1.888 0 0 1-1.35-.3 2.273 2.273 0 0 1-.915-1.125 2.563 2.563 0 0 1-.09-1.5 2.9 2.9 0 0 1 .24-.69ZM26.59 24.448a6.923 6.923 0 0 1-.81-4.5 6.11 6.11 0 0 1 1.605-3.302l6.587 11.733h4.98c.256 0 .51 0 .766.015.225.015.45.03.675.105.465.135.87.42 1.155.81.3.39.465.87.45 1.365.015.495-.15.975-.45 1.38-.285.39-.69.675-1.155.81-.225.06-.45.09-.675.105-.255.015-.51.015-.766.015h-2.385l1.815 3.256c.135.21.255.435.375.675.105.21.18.42.24.645.12.48.09.99-.09 1.456-.194.45-.525.84-.93 1.08a2.168 2.168 0 0 1-2.655-.345 2.571 2.571 0 0 1-.42-.555c-.15-.21-.27-.435-.39-.66L26.59 24.447Zm-7.734-13.97a2.457 2.457 0 0 1 .09-1.471c.195-.465.525-.855.93-1.11.42-.24.9-.345 1.38-.285.496.075.93.3 1.276.645.165.165.3.36.42.555.135.225.27.45.39.675l.585 1.05.57-1.05c.135-.225.255-.45.39-.675.135-.195.27-.39.435-.555a2.27 2.27 0 0 1 1.26-.645 2.2 2.2 0 0 1 1.381.285c.42.255.75.645.93 1.11.195.465.225.975.105 1.47-.06.225-.15.45-.255.66-.105.225-.24.45-.36.69l-9.167 16.548h6.572c2.13 0 3.675 2.146 3.06 4.276-.06.21-.135.345-.15.405H9.046c-.255 0-.51 0-.75-.015a2.552 2.552 0 0 1-.676-.12 2.197 2.197 0 0 1-1.17-.81c-.285-.405-.45-.9-.45-1.395 0-.51.165-.99.45-1.395.3-.405.705-.69 1.17-.826.225-.06.435-.09.675-.105.24-.015.496-.015.75-.015h4.996l7.292-13.172-1.86-3.376c-.136-.24-.256-.465-.376-.69a3.477 3.477 0 0 1-.24-.66Z"/><defs><linearGradient id="a" x1="23.998" x2="23.998" y1="7.595" y2="40.405" gradientUnits="userSpaceOnUse"><stop stop-color="#0ED4FC"/><stop offset="1" stop-color="#0C57EF"/></linearGradient></defs></svg>
